dist/favicon.svg

<svg width="22" height="20" viewBox="0 0 22 20" fill="none" xmlns="http://www.w3.org/2000/svg">
<mask id="mask0" mask-type="alpha" maskUnits="userSpaceOnUse" x="0" y="1" width="22" height="17">
<path d="M5.58595 15.055L6.73832 12.8951L5.58595 12.3151L6.28983 11.8666C0.818354 6.9333 0.1287 4.73756 1.80503 3.34545C6.01736 -0.152696 11.7633 7.4802 12.1201 6.9333C12.4055 6.49578 15.252 2 21 2V8.72721L19.3855 10.4314L18.3091 11.409H17.8351L13.0781 12.8951V16.6225H10.0291V12.8951L5.58595 15.055Z" fill="#C4C4C4" stroke="black" stroke-width="1.29786"/>
</mask>
<g mask="url(#mask0)">
<g clip-path="url(#clip0)">
<path d="M9.3173 7.86699C9.30258 7.2571 9.06582 6.679 8.65971 6.23725L4.5711 2.79106C4.41019 2.65548 4.1725 2.66561 4.02385 2.81455C3.8657 2.97301 3.8657 3.23005 4.02385 3.38851L7.14303 6.51379C7.33428 6.70541 7.33428 7.01619 7.14303 7.20781L5.75891 8.59464C5.56766 8.78627 5.25749 8.78627 5.06624 8.59464L1.94706 5.46937C1.78891 5.31091 1.53237 5.31091 1.37422 5.46937C1.22557 5.61831 1.2153 5.85646 1.35062 6.01768L4.79024 10.1143C5.23113 10.5212 5.8081 10.7584 6.4168 10.7732L7.59925 10.7768C8.14557 10.7787 8.6663 11.009 9.03578 11.4124L18.4402 21.7577C18.8996 22.2558 19.758 22.1934 20.2366 21.7138C20.7153 21.2342 20.7775 20.3744 20.2804 19.9139L9.95526 10.4911C9.55268 10.1209 9.32281 9.59914 9.32097 9.05175L9.3173 7.86699Z" fill="white" fill-opacity="0.1"/>
<path d="M20.6188 20.6205C20.6166 20.6001 20.614 20.5797 20.611 20.5593C20.6048 20.5186 20.5969 20.4783 20.5867 20.4387C20.5817 20.4189 20.5762 20.3993 20.57 20.3798C20.5156 20.2044 20.42 20.0433 20.2802 19.9139L9.95511 10.4911C9.89335 10.4343 9.83604 10.3735 9.78271 10.3099C9.74915 10.27 9.71666 10.2293 9.68647 10.1869C9.66701 10.1596 9.64816 10.1318 9.63007 10.1034C9.55774 9.99022 9.49721 9.87014 9.44955 9.74485C9.36603 9.52574 9.32159 9.29112 9.32082 9.05174L9.31715 7.86683C9.31255 7.67628 9.28634 7.48895 9.23991 7.30761C9.22137 7.23514 9.19961 7.16374 9.17478 7.09342C9.06291 6.77727 8.88805 6.48568 8.65956 6.23724L4.57095 2.79106C4.55072 2.77401 4.52942 2.75943 4.50735 2.74699C4.45187 2.71597 4.39088 2.69908 4.32958 2.69617C4.30506 2.69509 4.28039 2.69601 4.25602 2.69939C4.17082 2.71091 4.08883 2.74945 4.0237 2.8147C3.86555 2.97316 3.86555 3.23004 4.0237 3.38866L7.14288 6.51393C7.20265 6.57382 7.24387 6.64537 7.26625 6.72122C7.27514 6.75147 7.28111 6.78249 7.28418 6.81381C7.28709 6.84513 7.28709 6.87661 7.28418 6.90793C7.27973 6.95492 7.26839 7.00129 7.25046 7.04551C7.22656 7.10463 7.1907 7.1599 7.14288 7.20781L6.71395 7.63774L7.01155 7.88863C7.41765 8.33038 7.65442 8.90849 7.66913 9.51837C7.66913 9.51837 7.66913 9.53096 7.66929 9.55399C7.67174 10.1711 8.017 10.7271 8.55382 11.0297C8.55428 11.03 8.5549 11.0303 8.55536 11.0306C8.56608 11.0366 8.5765 11.0431 8.58708 11.0494C8.60271 11.0586 8.61819 11.068 8.63351 11.0775C8.64424 11.0842 8.65497 11.0911 8.66554 11.0982C8.68148 11.1086 8.69726 11.1192 8.71289 11.1301C8.72194 11.1366 8.73098 11.1427 8.74002 11.1492C8.76362 11.1664 8.78707 11.184 8.81005 11.2023C8.81496 11.2061 8.81955 11.2101 8.82446 11.2141C8.84331 11.2295 8.86216 11.2451 8.88055 11.2614C8.88821 11.268 8.89572 11.2749 8.90338 11.2817C8.91947 11.2963 8.93541 11.3112 8.95119 11.3264C8.95794 11.333 8.96483 11.3394 8.97157 11.3462C8.99334 11.3677 9.01479 11.3898 9.03563 11.4125L16.4782 19.5996L18.6321 21.5653C18.7781 21.7006 18.8756 21.8704 18.9288 22.0549C19.0117 22.0789 19.0976 22.0938 19.1847 22.0999H19.1848C19.2422 22.1041 19.2999 22.1042 19.3577 22.1009C19.3594 22.1007 19.3611 22.1005 19.3626 22.1005C19.4196 22.0969 19.4766 22.0898 19.5332 22.0791C19.5352 22.0787 19.5372 22.0783 19.5391 22.0778C19.5649 22.0729 19.5906 22.0671 19.6162 22.0606C19.6191 22.0599 19.6221 22.0592 19.6248 22.0585C19.6524 22.0514 19.6797 22.0434 19.7068 22.0347C19.7073 22.0345 19.7077 22.0344 19.7082 22.0342C19.7333 22.0259 19.7581 22.0169 19.783 22.0072C19.788 22.0054 19.7931 22.0034 19.7981 22.0012C19.8228 21.9912 19.8472 21.9808 19.8712 21.9694C19.8718 21.9691 19.8723 21.969 19.8728 21.9688C19.8973 21.9571 19.9213 21.9445 19.9453 21.9315C19.9506 21.9284 19.9561 21.9254 19.9615 21.9223C19.9807 21.9114 19.9995 21.9 20.0182 21.8882C20.0229 21.8851 20.0279 21.8822 20.0326 21.8791C20.0548 21.8645 20.0766 21.8493 20.0979 21.8335C20.1022 21.8303 20.1062 21.8271 20.1103 21.824C20.1276 21.8107 20.1446 21.797 20.1613 21.7827C20.1668 21.7781 20.1725 21.7733 20.1779 21.7684C20.198 21.7508 20.2176 21.7328 20.2364 21.7139C20.4908 21.459 20.6275 21.097 20.6254 20.7444C20.6251 20.703 20.6229 20.6615 20.6188 20.6205V20.6205Z" fill="white" fill-opacity="0.1"/>
<path d="M17.045 10.0172C17.792 9.95413 18.4707 9.55721 18.8929 8.93658L19.8259 7.56495C20.5899 6.44146 20.8902 5.06522 20.6634 3.72477C20.6263 3.5055 20.5155 3.31388 20.3585 3.17446C20.2016 3.03504 19.9984 2.94767 19.7767 2.93707C18.4214 2.87228 17.0935 3.33583 16.0719 4.2307L14.8248 5.32318C14.2604 5.81744 13.9485 6.54034 13.9755 7.29087L14.0428 8.47379C14.0738 9.02026 13.8756 9.55491 13.4959 9.9486L3.75428 19.9758C3.28565 20.4653 3.39921 21.3198 3.90584 21.7698C4.41232 22.2197 5.2728 22.2303 5.70159 21.7055L14.469 10.8129C14.8136 10.3882 15.3196 10.1269 15.8649 10.0922L17.045 10.0172Z" fill="white" fill-opacity="0.1"/>
<path d="M20.6633 3.72474C20.6263 3.50547 20.5155 3.31385 20.3585 3.17443C20.2997 3.12207 20.2343 3.07708 20.1639 3.04084C20.0936 3.00445 20.018 2.97681 19.939 2.959C19.8864 2.94718 19.8321 2.93966 19.7767 2.93705C19.7279 2.93474 19.6792 2.93336 19.6306 2.93229C19.6159 2.93198 19.6012 2.93198 19.5865 2.93183C19.5517 2.93136 19.5171 2.93136 19.4824 2.93167C19.4665 2.93167 19.4506 2.93198 19.4346 2.93213C19.3986 2.9329 19.3626 2.93397 19.3266 2.9352C19.3139 2.93582 19.301 2.93612 19.2883 2.93674C19.2391 2.93889 19.19 2.94165 19.141 2.94534C19.1531 4.0154 18.8391 5.07118 18.2303 5.96636L17.2973 7.33783C16.9655 7.82549 16.4754 8.17512 15.9184 8.33311C15.4919 8.45411 15.0749 8.60658 14.68 8.80803C14.3133 8.99505 13.9527 9.18192 13.9482 9.19558C13.947 9.19958 13.9455 9.20357 13.9443 9.20741C13.9352 9.23412 13.926 9.26069 13.9159 9.28694C13.9139 9.29232 13.9116 9.29754 13.9095 9.30291C13.8998 9.32763 13.8899 9.35235 13.8791 9.37677C13.8761 9.38352 13.8728 9.39028 13.8698 9.39704C13.8594 9.41976 13.8489 9.44249 13.8377 9.4649C13.8336 9.47319 13.829 9.48118 13.8249 9.48947C13.8141 9.5102 13.8033 9.53077 13.7918 9.5512C13.7863 9.56102 13.7803 9.57054 13.7746 9.58022C13.7637 9.5988 13.753 9.61722 13.7415 9.63549C13.7343 9.64686 13.7266 9.65791 13.7191 9.66927C13.7084 9.6854 13.698 9.70167 13.6866 9.71749C13.6775 9.73069 13.6675 9.74359 13.6578 9.75649C13.6477 9.77015 13.6379 9.78397 13.6275 9.79718C13.6149 9.81315 13.6017 9.82865 13.5887 9.84432C13.5804 9.8543 13.5725 9.86443 13.5639 9.87426C13.542 9.89959 13.5193 9.92431 13.4959 9.94857L3.75428 19.9757C3.28565 20.4652 3.39921 21.3197 3.90584 21.7698C4.41232 22.2197 5.2728 22.2303 5.70159 21.7054L14.469 10.8129C14.8136 10.3882 15.3196 10.1268 15.8649 10.0921L17.045 10.0172C17.792 9.9541 18.4707 9.55718 18.8927 8.93655L19.8257 7.56492C20.5899 6.44143 20.8902 5.06519 20.6633 3.72474V3.72474Z" fill="white" fill-opacity="0.1"/>
<rect x="2.32269" y="4.59692" width="0.921744" height="7.68119" rx="0.460872" transform="rotate(-46.2203 2.32269 4.59692)" fill="white" fill-opacity="0.1"/>
</g>
</g>
<path d="M4.64107 18V15.7845H6.21548V7.10174H4.64107V4.88627H16.1993V9.04382H13.6915V7.10174H9.62825V10.128H12.909V12.3435H9.62825V15.7845H13.6915V13.8236H16.1993V18H4.64107Z" fill="#FC8868"/>
<defs>
<clipPath id="clip0">
<rect width="20.0863" height="20.0863" fill="white" transform="translate(0.952942 2.33362)"/>
</clipPath>
</defs>
</svg>

<svg width="22" height="20" fill="none" xmlns="http://www.w3.org/2000/svg"><mask id="a" maskUnits="userSpaceOnUse" x="0" y="1" width="22" height="17"><path d="M5.586 15.055l1.152-2.16-1.152-.58.704-.448C.818 6.933.129 4.737 1.805 3.345 6.017-.153 11.763 7.48 12.12 6.933 12.406 6.496 15.252 2 21 2v6.727l-1.614 1.704-1.077.978h-.474l-4.757 1.486v3.727H10.03v-3.727l-4.443 2.16z" fill="#C4C4C4" stroke="#000" stroke-width="1.298"/></mask><g clip-path="url(#clip0)" fill="#fff" fill-opacity=".1" mask="url(#a)"><path d="M9.317 7.867a2.497 2.497 0 00-.657-1.63L4.57 2.791a.405.405 0 00-.547.598l3.119 3.125a.491.491 0 010 .694L5.759 8.595a.49.49 0 01-.693 0L1.947 5.469a.405.405 0 00-.596.549l3.44 4.096a2.49 2.49 0 001.626.66l1.182.003a1.957 1.957 0 011.437.635l9.404 10.346c.46.498 1.318.435 1.797-.044.478-.48.54-1.34.043-1.8L9.955 10.49a1.964 1.964 0 01-.634-1.44l-.004-1.184z"/><path d="M20.619 20.62a1.599 1.599 0 00-.032-.181 1.055 1.055 0 00-.306-.525L9.954 10.49a1.934 1.934 0 01-.325-.388 1.96 1.96 0 01-.31-1.051l-.003-1.185a2.496 2.496 0 00-.657-1.63L4.57 2.791a.413.413 0 00-.24-.095.406.406 0 00-.306.693l3.119 3.125a.489.489 0 010 .694l-.43.43.299.25a2.497 2.497 0 01.657 1.666 1.71 1.71 0 00.885 1.476h.001l.032.02a2.354 2.354 0 01.126.08l.027.02c.024.016.047.034.07.052l.014.012c.02.015.038.031.057.047l.022.02.048.045.02.02.065.066 7.442 8.188 2.154 1.965c.146.136.244.305.297.49a1.33 1.33 0 00.429.046h.005a1.39 1.39 0 00.253-.04l.009-.003a1.45 1.45 0 00.082-.023h.001a1.523 1.523 0 00.163-.066h.002a1.6 1.6 0 00.072-.038l.017-.009a.642.642 0 00.056-.034l.015-.009a1.41 1.41 0 00.065-.046l.012-.009a1.243 1.243 0 00.126-.11 1.377 1.377 0 00.383-1.093z"/><path d="M17.045 10.017a2.488 2.488 0 001.848-1.08l.933-1.372a5.267 5.267 0 00.837-3.84.946.946 0 00-.886-.788 5.243 5.243 0 00-3.705 1.294l-1.247 1.092a2.496 2.496 0 00-.85 1.968l.068 1.183a1.964 1.964 0 01-.547 1.475L3.754 19.976c-.468.49-.355 1.344.152 1.794.506.45 1.367.46 1.796-.064l8.767-10.893c.345-.425.85-.686 1.396-.72l1.18-.076z"/><path d="M20.663 3.725a.945.945 0 00-.886-.788 5.778 5.778 0 00-.146-.005h-.196l-.108.003-.039.002-.147.008a5.266 5.266 0 01-.91 3.021l-.934 1.372a2.49 2.49 0 01-1.379.995 6.8 6.8 0 00-1.238.475c-.367.187-.727.374-.732.388l-.004.011-.028.08-.007.016-.03.074-.01.02-.031.068-.013.024c-.01.021-.022.042-.033.062l-.017.03-.034.054-.022.034-.032.048-.03.04-.03.04-.038.047-.025.03a1.85 1.85 0 01-.068.075L3.754 19.976c-.468.49-.355 1.344.152 1.794.506.45 1.367.46 1.796-.065l8.767-10.892c.345-.425.85-.686 1.396-.72l1.18-.076a2.488 2.488 0 001.848-1.08l.933-1.372a5.266 5.266 0 00.837-3.84z"/><rect x="2.323" y="4.597" width=".922" height="7.681" rx=".461" transform="rotate(-46.22 2.323 4.597)"/></g><path d="M4.641 18v-2.216h1.574V7.102H4.641V4.886H16.2v4.158h-2.508V7.102H9.628v3.026h3.281v2.216h-3.28v3.44h4.063v-1.96h2.507V18H4.641z" fill="#FC8868"/><defs><clipPath id="clip0"><path fill="#fff" transform="translate(.953 2.334)" d="M0 0h20.086v20.086H0z"/></clipPath></defs></svg>
